app/img/icons/insurance.svg

<svg width="72" height="72" viewBox="0 0 72 72" fill="none" xmlns="http://www.w3.org/2000/svg">
<path d="M48.4197 49.5479L63.4359 40.9221C64.597 40.2644 65.9702 40.09 67.2589 40.4364C68.5475 40.7829 69.6482 41.6225 70.3229 42.7737C70.9953 43.9407 71.178 45.3265 70.831 46.6278C70.484 47.9292 69.6355 49.04 68.4713 49.7172L46.5569 62.2043C45.5255 62.7934 44.3575 63.101 43.1698 63.0962H26.5617C25.3377 63.1004 24.1371 63.4317 23.0843 64.0559L19.0649 66.4833" stroke="#D90002" stroke-linecap="round" stroke-linejoin="round"/>
<path d="M30.355 51.8063H43.3389C44.6854 51.8033 45.976 51.2671 46.9281 50.3149C47.8803 49.3628 48.4165 48.0722 48.4195 46.7257V46.7257C48.4165 45.3791 47.8803 44.0886 46.9281 43.1364C45.976 42.1842 44.6854 41.648 43.3389 41.645H24.9357C23.6936 41.6433 22.475 41.9831 21.4131 42.6273L10.0325 49.5482" stroke="#D90002" stroke-linecap="round" stroke-linejoin="round"/>
<path d="M1 50.6776L6.64516 47.2905L20.1822 68.7421L16.8064 71.0002" stroke="#D90002" stroke-linejoin="round"/>
<path d="M38.2584 1L8.90356 21.3226V28.0967H15.6778V24.7097L38.2584 8.90322L60.839 24.7097V29.2258H67.6132V21.3226L38.2584 1Z" stroke="#464646" stroke-linecap="round" stroke-linejoin="round"/>
<path d="M49.5482 3.25806V1H60.8385V11.1613" stroke="#464646" stroke-linecap="square" stroke-linejoin="round"/>
<path d="M15.6771 45.0321V32.6128" stroke="#464646" stroke-linecap="square" stroke-linejoin="round"/>
<path d="M60.8385 33.7422V41.6454" stroke="#464646" stroke-linecap="square" stroke-linejoin="round"/>
</svg>

<svg width="72" height="72" fill="none" xmlns="http://www.w3.org/2000/svg"><path d="M48.42 49.548l15.016-8.626a5.08 5.08 0 016.887 1.852 5.092 5.092 0 01-1.852 6.943L46.557 62.204c-1.032.59-2.2.897-3.387.892H26.562a6.865 6.865 0 00-3.478.96l-4.02 2.427" stroke="#D90002" stroke-linecap="round" stroke-linejoin="round"/><path d="M30.355 51.806h12.984a5.092 5.092 0 005.08-5.08v0a5.092 5.092 0 00-5.08-5.081H24.936a6.774 6.774 0 00-3.523.982l-11.38 6.921" stroke="#D90002" stroke-linecap="round" stroke-linejoin="round"/><path d="M1 50.678l5.645-3.387 13.537 21.451L16.806 71" stroke="#D90002" stroke-linejoin="round"/><path d="M38.258 1L8.904 21.323v6.774h6.774V24.71l22.58-15.807L60.84 24.71v4.516h6.774v-7.903L38.258 1z" stroke="#464646" stroke-linecap="round" stroke-linejoin="round"/><path d="M49.548 3.258V1h11.29v10.161M15.677 45.032v-12.42m45.162 1.13v7.903" stroke="#464646" stroke-linecap="square" stroke-linejoin="round"/></svg>
